X:1
T:March EHo.064
T:March EHo.064
T:Von Esch
C:Von Esch
L:1/8
Q:1/4=100
M:4/4
K:Bb
V:1 treble 
V:1
!f! ff/f/ ff d2 B2 | BA/B/ c/B/A/G/ F2 z2 |!p! ee"^tr" c3/2B/4c/4 dd/e/ g/f/e/d/ | %3
 c2 c>c c2 z!f! (3f/g/a/ | b4 g2"^tr" f2{=ef} | =ee/f/ g/f/e/d/ cc'c'c' | %6
!p! a>c' c'/b/a/g/ f2"^tr" g3/2f/4g/4 | f2 [Af]>[Af] [Af]2"^NB1" z2 ::!p! f4 d2 g2 | (fede) c2 f2 | %10
!p! dc/d/ e/f/g/a/ bfed | c2 [Af]>[Af] [Af]2 z (3f/g/a/ | bb"^tr" ba/b/ c'/b/a/g/ f (3d/=e/^f/ | %13
 gg"^tr" g3/2^f/4g/4 a/g/=f/_e/ d>d |!p! e/d/e/f/ g/a/b/e/ d>f f/e/d/c/ | B2 [Bb]>[Bb] [Bb]4 :| %16

